Adwaita++/apps/symbolic/chrome-symbolic.svg

<svg height="16" viewBox="0 0 16 16" width="16" xmlns="http://www.w3.org/2000/svg">
  <path d="m8 0c-2.096.001-4.108.824-5.603 2.293l2.755 4.773c.404-1.231 1.552-2.065 2.848-2.066h7.412c-1.222-3.021-4.154-4.998-7.412-5zm-6.301 3.086c-1.098 1.403-1.696 3.132-1.699 4.914.004 3.593 2.403 6.742 5.865 7.701l2.752-4.767c-.203.043-.41.065-.617.066-1.071-.002-2.059-.574-2.594-1.502l-.004.002zm8.531 2.914c.494.549.768 1.261.77 2-.001.526-.14 1.043-.404 1.498l.002.002-3.704 6.414c.367.054.736.083 1.106.086 4.418 0 8-3.582 8-8-.002-.675-.089-1.347-.26-2zm-2.23 0c-1.105 0-2 .895-2 2 0 .53.211 1.039.586 1.414s.883.586 1.414.586c.53 0 1.039-.211 1.414-.586s.586-.884.586-1.414c0-.531-.211-1.039-.586-1.414s-.884-.586-1.414-.586z" fill="#474747" fill-rule="evenodd"/>
</svg>

<svg xmlns="http://www.w3.org/2000/svg" style="isolation:isolate" width="16" height="16" viewBox="0 0 16 16">
 <defs>
  <style id="current-color-scheme" type="text/css">
   .ColorScheme-Text { color:#444; } .ColorScheme-Highlight { color:#5294e2; }
  </style>
  <linearGradient id="arrongin" x1="0%" x2="0%" y1="0%" y2="100%">
   <stop offset="0%" style="stop-color:#dd9b44"/>
   <stop offset="100%" style="stop-color:#ad6c16"/>
  </linearGradient>
  <linearGradient id="aurora" x1="0%" x2="0%" y1="0%" y2="100%">
   <stop offset="0%" style="stop-color:#09D4DF"/>
   <stop offset="100%" style="stop-color:#9269F4"/>
  </linearGradient>
  <linearGradient id="fitdance" x1="0%" x2="0%" y1="0%" y2="100%">
   <stop offset="0%" style="stop-color:#1AD6AB"/>
   <stop offset="100%" style="stop-color:#329DB6"/>
  </linearGradient>
  <linearGradient id="oomox" x1="0%" x2="0%" y1="0%" y2="100%">
   <stop offset="0%" style="stop-color:#efefe7"/>
   <stop offset="100%" style="stop-color:#8f8f8b"/>
  </linearGradient>
  <linearGradient id="rainblue" x1="0%" x2="0%" y1="0%" y2="100%">
   <stop offset="0%" style="stop-color:#00F260"/>
   <stop offset="100%" style="stop-color:#0575E6"/>
  </linearGradient>
  <linearGradient id="sunrise" x1="0%" x2="0%" y1="0%" y2="100%">
   <stop offset="0%" style="stop-color:#FF8501"/>
   <stop offset="100%" style="stop-color:#FFCB01"/>
  </linearGradient>
  <linearGradient id="telinkrin" x1="0%" x2="0%" y1="0%" y2="100%">
   <stop offset="0%" style="stop-color:#b2ced6"/>
   <stop offset="100%" style="stop-color:#6da5b7"/>
  </linearGradient>
  <linearGradient id="60spsycho" x1="0%" x2="0%" y1="0%" y2="100%">
   <stop offset="0%" style="stop-color:#df5940"/>
   <stop offset="25%" style="stop-color:#d8d15f"/>
   <stop offset="50%" style="stop-color:#e9882a"/>
   <stop offset="100%" style="stop-color:#279362"/>
  </linearGradient>
  <linearGradient id="90ssummer" x1="0%" x2="0%" y1="0%" y2="100%">
   <stop offset="0%" style="stop-color:#f618c7"/>
   <stop offset="20%" style="stop-color:#94ffab"/>
   <stop offset="50%" style="stop-color:#fbfd54"/>
   <stop offset="100%" style="stop-color:#0f83ae"/>
  </linearGradient>
 </defs>
 <path style="fill:currentColor" fill-rule="evenodd" class="ColorScheme-Text" d="M 8 0 C 5.904 0.001 3.892 0.824 2.397 2.293 L 5.152 7.066 C 5.556 5.835 6.704 5.001 8 5 L 15.412 5 C 14.19 1.979 11.258 0.002 8 0 L 8 0 Z M 1.699 3.086 C 0.601 4.489 0.003 6.218 0 8 C 0.004 11.593 2.403 14.742 5.865 15.701 L 8.617 10.934 C 8.414 10.977 8.207 10.999 8 11 C 6.929 10.998 5.941 10.426 5.406 9.498 L 5.402 9.5 L 1.699 3.086 L 1.699 3.086 Z M 10.23 6 C 10.724 6.549 10.998 7.261 11 8 C 10.999 8.526 10.86 9.043 10.596 9.498 L 10.598 9.5 L 6.894 15.914 C 7.261 15.968 7.63 15.997 8 16 C 12.418 16 16 12.418 16 8 C 15.998 7.325 15.911 6.653 15.74 6 L 10.23 6 L 10.23 6 Z M 8 6 C 6.895 6 6 6.895 6 8 C 6 8.53 6.211 9.039 6.586 9.414 C 6.961 9.789 7.469 10 8 10 C 8.53 10 9.039 9.789 9.414 9.414 C 9.789 9.039 10 8.53 10 8 C 10 7.469 9.789 6.961 9.414 6.586 C 9.039 6.211 8.53 6 8 6 L 8 6 Z"/>
</svg>
